X: 63
T: Karjalan kunnailla
O: Trad Finland
Z: John Chambers <jc@trillian.mit.edu>
M: 3/4
L: 1/8
K: Em
B,2 \
| "Em"G4 B,D | "Bm"F2 F2 "Em"G2 | "C"E4 E2 | "Em"B,4 G,B, \
| "Bm"D2 D2 F2 | "C"E2 E2 "D7"C2 | "G"B,4 C2 | D4 "B7"B,B, |
| "Em"G4 B2 | "Bm"F2 F2 G2 | "Am"E4 "C7-5"F2 | "B7"B,4 G2 \
| "C"E2 E2 G2 | "Em"B4 "B"^D2 | "B7"F4 G2 | "Em"E4 |]

%%sep 0 1 8cm

%%sep 1 1 500
%%sep 1 1 500

